!!!!SEGMENT: T301_Fal-w1p67m127-150.krn
!!!COM: Falla (y Matheu), Manuel de
!!!OTL: Act II (Second Tableau), Scene 1: Danza
!!!OMV: Act II, Scene 1
!!!example: 301
!!!work: Fal-1
!!!AGN-sub: Opera
!!!OPR: La vida breve (The Brief Life), Opera in Two Acts
!!!filename: T301_Fal-w1p67m127-150.krn
**kern	**dynam	**kern	**dynam	**kern	**dynam	**kern	**dynam	**kern	**dynam	**kern	**dynam	**kern	**kern	**dynam	**kern	**dynam	**kern	**dynam	**kern	**dynam	**kern	**dynam	**kern	**dynam	**kern	**dynam	**kern	**dynam	**kern	**dynam	**kern	**dynam	**kern	**dynam	**kern	**dynam	**kern	**dynam	**kern	**dynam
*grp:A	*	*grp:A	*	*grp:A	*	*grp:A	*	*grp:A	*	*grp:A	*	*grp:A	*grp:A	*	*grp:B	*	*grp:B	*	*grp:B	*	*grp:B	*	*grp:A	*	*grp:A	*	*grp:A	*	*grp:A	*	*grp:A	*	*grp:A	*	*grp:B	*	*grp:A	*	*grp:A	*
*part22	*	*part21	*	*part20	*	*part19	*	*part18	*	*part17	*	*part16	*part16	*	*part15	*	*part14	*	*part13	*	*part10	*	*part9	*	*part8	*	*part7	*	*part6	*	*part5	*	*part4	*	*part3	*	*part2	*	*part1	*
*staff23	*	*staff22	*	*staff21	*	*staff20	*	*staff19	*	*staff18	*	*staff17	*staff16	*	*staff15	*	*staff14	*	*staff13	*	*staff10	*	*staff9	*	*staff8	*	*staff7	*	*staff6	*	*staff5	*	*staff4	*	*staff3	*	*staff2	*	*staff1	*
*ICstr	*	*ICstr	*	*ICstr	*	*ICstr	*	*ICstr	*	*ICstr	*	*ICstr	*	*	*ICidio	*	*ICidio	*	*ICidio	*	*ICbras	*	*ICbras	*	*ICbras	*	*ICww	*	*ICww	*	*ICww	*	*ICww	*	*ICww	*	*ICww	*	*ICww	*
*Ibass	*	*Icello	*	*Icello	*	*Iviola	*	*Ivioln	*	*Ivioln	*	*Iarpa	*	*	*Itrngl	*	*Icasts	*	*Itimpa	*	*Itromp	*	*Icor	*	*Icor	*	*Ifagot	*	*Iclarb	*	*Iclars	*	*Icangl	*	*Ioboe	*	*Ipicco	*	*Iflt	*
*I"Contrabass	*	*I"Violoncello	*	*I"Violoncello	*	*I"Viola	*	*I"Violin II	*	*I"Violin I	*	*I"Harp	*	*	*I"Triangle	*	*I"Castanets	*	*I"Timpani	*	*I"Trumpet in C 1.2.	*	*I"Horn in F 3.4.	*	*I"Horn in F 1.2.	*	*I"Bassoon 1.2.	*	*I"Bass Clarinet in A	*	*I"Clarinet in A 1.2.	*	*I"English Horn	*	*I"Oboe 1.2.	*	*I"Piccolo	*	*I"Flute 1.2.	*
*I'Cb.	*	*I'Vc.	*	*I'Vc.	*	*I'Vla.	*	*I'Vln. II	*	*I'Vln. I	*	*I'Hp.	*	*	*I'Tri.	*	*I'Cast.	*	*I'Timp.	*	*I'1.2. C Tpt.	*	*I'3.4. Hn.	*	*I'1.2. Hn.	*	*I'1.2. Bsn.	*	*I'A B.Cl.	*	*I'1.2. A Cl.	*	*I'Eng. Hn.	*	*I'1.2. Ob.	*	*I'Picc.	*	*I'1.2. Fl.	*
*	*	*	*	*	*	*	*	*	*	*	*	*	*	*	*stria1	*	*stria1	*	*	*	*	*	*	*	*	*	*	*	*	*	*	*	*	*	*	*	*	*	*	*
*clefF4	*	*clefF4	*	*clefF4	*	*clefC3	*	*clefG2	*	*clefG2	*	*clefF4	*clefG2	*	*clefX	*	*clefX	*	*clefF4	*	*clefG2	*	*clefG2	*	*clefG2	*	*clefF4	*	*clefF4	*	*clefG2	*	*clefG2	*	*clefG2	*	*clefG2	*	*clefG2	*
*ITrd7c12	*	*	*	*	*	*	*	*	*	*	*	*	*	*	*	*	*	*	*	*	*	*	*ITrd4c7	*	*ITrd4c7	*	*	*	*ITrd2c3	*	*ITrd2c3	*	*ITrd4c7	*	*	*	*ITrd-7c-12	*	*	*
*k[]	*	*k[]	*	*k[]	*	*k[]	*	*k[]	*	*k[]	*	*k[]	*k[]	*	*k[]	*	*k[]	*	*k[]	*	*k[]	*	*k[b-]	*	*k[b-]	*	*k[]	*	*k[f#c#g#]	*	*k[f#c#g#]	*	*k[b-]	*	*k[]	*	*k[]	*	*k[]	*
*	*	*	*	*	*	*	*	*	*	*	*	*	*	*	*C:	*	*C:	*	*	*	*	*	*	*	*	*	*	*	*	*	*	*	*	*	*	*	*	*	*	*
*M3/8	*	*M3/8	*	*M3/8	*	*M3/8	*	*M3/8	*	*M3/8	*	*M3/8	*M3/8	*	*M3/8	*	*M3/8	*	*M3/8	*	*M3/8	*	*M3/8	*	*M3/8	*	*M3/8	*	*M3/8	*	*M3/8	*	*M3/8	*	*M3/8	*	*M3/8	*	*M3/8	*
=1	=1	=1	=1	=1	=1	=1	=1	=1	=1	=1	=1	=1	=1	=1	=1	=1	=1	=1	=1	=1	=1	=1	=1	=1	=1	=1	=1	=1	=1	=1	=1	=1	=1	=1	=1	=1	=1	=1	=1	=1
*	*	*	*	*	*	*	*	*	*	*	*	*	*	*	*	*	*	*	*	*	*	*	*	*	*	*	*	*	*	*	*^	*	*	*	*	*	*	*	*	*
!	!	!	!	!	!	!	!	!	!	!	!	!	!	!	!	!	!	!	!	!	!	!	!	!	!	!	!	!	!	!	!	!	!	!	!	!	!	!	!	!LO:TX:t=[[quarter-dot]=60]	!
!LO:TX:a:t=[1a metà, pizz.]	!	!LO:TX:a:t=[unis., pizz.]	!	!LO:TX:a:t=[unis., pizz.]	!	!	!	!	!	!	!	!	!	!	!	!	!	!	!	!	!	!	!	!	!	!	!	!	!	!	!	!	!	!	!	!	!	!	!	!LO:TX:a:t=[1o]	!
!	!LO:DY:ed=brack	!	!LO:DY:ed=brack	!	!LO:DY:ed=brack	!	!	!	!	!	!	!	!	!	!	!	!	!	!	!	!LO:TX:a:t=[con sord.]	!	!	!	!	!	!	!	!	!	!	!	!	!	!	!	!	!	!	!	!
!	!	!	!	!	!	!	!LO:DY:ed=brack	!	!LO:DY:ed=brack	!	!	!	!	!LO:DY:ed=brack	!	!	!	!	!	!	!	!LO:DY:ed=brack	!	!	!	!	!	!	!	!	!LO:T:a	!LO:T:b	!LO:DY:ed=brack	!	!LO:DY:ed=brack	!	!	!	!LO:DY:ed=brack	!	!LO:DY:ed=brack
8BB	p	8BBL	p	8BBL	p	(16dLL	pp >	(16dLL	pp >	8%3r	.	8BBL	8%3r	p	8%3r	.	8%3r	.	8%3r	.	8r	pp	8%3r	.	8%3r	.	8%3r	.	8%3r	.	16eeLL]	16ELL]	pp	16ELL]	pp	8%3r	.	16eeeLL]	pp	16eeLL]	pp
.	.	.	.	.	.	16e	.	16e	.	.	.	.	.	.	.	.	.	.	.	.	.	.	.	.	.	.	.	.	.	.	16ff#	16F#	.	16F#X	.	.	.	16fff#X	.	16ff#X	.
8r	.	8E	.	8E	.	16d	.	16d	.	.	.	8E	.	.	.	.	.	.	.	.	16f#X'LL 16dd	.	.	.	.	.	.	.	.	.	16gg#	16G#	.	16G#X	.	.	.	16ggg#X	.	16gg#X	.
.	.	.	.	.	.	16e	.	16e	.	.	.	.	.	.	.	.	.	.	.	.	16f#'JJ 16dd	.	.	.	.	.	.	.	.	.	16aa	16A	.	16A	.	.	.	16aaa	.	16aa	.
8r	.	8EEJ	.	8EEJ	.	16d	.	16d	.	.	.	8EEJ	.	.	.	.	.	.	.	.	8e' 8ee	.	.	.	.	.	.	.	.	.	16ff#	16F#	.	16F#	.	.	.	16fff#	.	16ff#	.
.	.	.	.	.	.	16eJJ))j	]	16eJJ))j	]	.	.	.	.	.	.	.	.	.	.	.	.	.	.	.	.	.	.	.	.	.	16gg#JJ	16G#JJ	.	16G#JJ)j	.	.	.	16ggg#JJ)j	.	16gg#JJ)j	.
=2	=2	=2	=2	=2	=2	=2	=2	=2	=2	=2	=2	=2	=2	=2	=2	=2	=2	=2	=2	=2	=2	=2	=2	=2	=2	=2	=2	=2	=2	=2	=2	=2	=2	=2	=2	=2	=2	=2	=2	=2	=2
*	*	*	*	*	*	*	*	*	*	*	*	*	*	*	*	*	*	*	*	*	*	*	*	*	*	*	*^	*	*	*	*	*	*	*	*	*	*	*	*	*	*
8AA	.	8AA	.	8AA	.	16r	<	8r	.	(16eeLL	p <	8AA	8%3r	.	8%3r	.	8%3r	.	4.Et	pp < [	8r	.	8%3r	.	8%3r	.	[4.c	(4.AA	p < [ > ]	(4.AA	p < [	8ee')j	8E')j	.	[4.E	< [	8%3r	.	(16eeeLL	<	(16eeLL	<
.	.	.	.	.	.	((16f#XLL	<	.	.	16ff#X	.	.	.	.	.	.	.	.	.	.	.	.	.	.	.	.	.	.	.	.	.	.	.	.	.	.	.	.	16fff#X	.	16ff#X	.
!	!	!	!	!	!	!	!	!	!	!	!	!	!	!	!	!	!	!	!	!	!	!LO:DY:t=meno %s	!	!	!	!	!	!	!	!	!	!	!	!	!	!	!	!	!	!	!	!
8r	.	8r	<	8r	<	16c	.	(16gg#XLL	p <	16gg#X	.	8r	.	.	.	.	.	.	.	.	16f#X'LL 16cc	p	.	.	.	.	.	.	.	.	.	8r	8r	.	.	.	.	.	16ggg#X	.	16gg#X	.
.	.	.	.	.	.	16f#	.	16aa	.	16aa	.	.	.	.	.	.	.	.	.	.	16f#'JJ 16cc	.	.	.	.	.	.	.	.	.	.	.	.	.	.	.	.	.	16aaa	.	16aa	.
8r	.	8AA	.	8AA	.	16c	.	16bb	.	16bb	.	8r	.	.	.	.	.	.	.	.	8e' 8ee	.	.	.	.	.	.	.	.	.	.	8r	8r	.	.	.	.	.	16bbb	.	16bb	.
.	.	.	.	.	.	16eJJ)	[	16cccJJ)	[	16cccJJ)	[	.	.	.	.	.	.	.	.	.	.	.	.	.	.	.	.	.	.	.	.	.	.	.	.	.	.	.	16ccccJJ)	[[	16cccJJ)	[[
*	*	*	*	*	*	*	*	*	*	*	*	*	*	*	*	*	*	*	*	*	*	*	*	*	*	*	*	*	*	*	*	*v	*v	*	*	*	*	*	*	*	*	*
=3	=3	=3	=3	=3	=3	=3	=3	=3	=3	=3	=3	=3	=3	=3	=3	=3	=3	=3	=3	=3	=3	=3	=3	=3	=3	=3	=3	=3	=3	=3	=3	=3	=3	=3	=3	=3	=3	=3	=3	=3	=3
!	!	!	!	!	!	!	!	!	!	!	!	!	!	!	!	!	!	!	!	!	!	!	!	!	!	!	!	!	!	!	!	!	!	!	!	!	!	!LO:TX:b:i:t=  molto dim.	!	!	!
*	*	*	*	*	*	*	*	*	*	*	*	*	*	*	*	*	*	*	*	*	*	*	*	*	*	*	*	*	*	*	*	*	*	*	*	*	*	*Xtuplet	*	*Xtuplet	*
!	!	!	!	!	!	!	!	!	!	!	!	!	!	!	!	!	!	!	!	!	!	!	!	!	!	!	!	!	!	!	!	!	!	!	!	!	!	!	!LO:DY:t=%s molto dim.	!	!LO:DY:t=%s molto dim.
8AA-X~	.	8AA-X~	.	8AA-X~	.	(16cLL	>	8eee'	f	8eee'	f	8AA-X	8%3r	.	8%3r	.	8%3r	.	4.E	> ]	8r	.	8%3r	.	8%3r	.	4.c_	(4.AA-X)	>	(4.AA-X)	> ]	8%3r	.	4.E]	> ]	8%3r	.	(16%3.eeeett	f	(16%3.eeett	f
.	.	.	.	.	.	16f#X	.	.	.	.	.	.	.	.	.	.	.	.	.	.	.	.	.	.	.	.	.	.	.	.	.	.	.	.	.	.	.	.	.	.	.
!	!	!LO:TX:b:i:t=dim.	!	!LO:TX:b:i:t=dim.	!	!	!	!	!	!	!	!	!	!	!	!	!	!	!	!	!	!	!	!	!	!	!	!	!	!	!	!	!	!	!	!	!	!	!	!	!
8r	.	8r	.	8r	.	16c	.	4ee~	> ]	4ee~	> ]	8r	.	.	.	.	.	.	.	.	16f#X'LL 16cc	pp	.	.	.	.	.	.	.	.	.	.	.	.	.	.	.	.	.	.	.
.	.	.	.	.	.	16f#	.	.	.	.	.	.	.	.	.	.	.	.	.	.	16f#'JJ 16cc	.	.	.	.	.	.	.	.	.	.	.	.	.	.	.	.	.	.	.	.
8r	.	8AA-	.	8AA-	.	16c	.	.	.	.	.	8r	.	.	.	.	.	.	.	.	8e' 8ee	.	.	.	.	.	.	.	.	.	.	.	.	.	.	.	.	.	.	.	.
.	.	.	.	.	.	.	.	.	.	.	.	.	.	.	.	.	.	.	.	.	.	.	.	.	.	.	.	.	.	.	.	.	.	.	.	.	.	64%3dddd#XLL	.	64%3ddd#XLL	.
.	.	.	.	.	.	16f#JJ))	]	.	.	.	.	.	.	.	.	.	.	.	.	.	.	.	.	.	.	.	.	.	.	.	.	.	.	.	.	.	.	.	.	.	.
.	.	.	.	.	.	.	.	.	.	.	.	.	.	.	.	.	.	.	.	.	.	.	.	.	.	.	.	.	.	.	.	.	.	.	.	.	.	64%3eeeeJJ)	.	64%3eeeJJ)	.
=4	=4	=4	=4	=4	=4	=4	=4	=4	=4	=4	=4	=4	=4	=4	=4	=4	=4	=4	=4	=4	=4	=4	=4	=4	=4	=4	=4	=4	=4	=4	=4	=4	=4	=4	=4	=4	=4	=4	=4	=4	=4
*	*	*	*	*	*	*	*	*	*	*	*	*	*	*	*	*	*	*	*	*	*	*	*^	*	*	*	*	*	*	*	*	*^	*	*	*	*	*	*	*	*	*
!	!	!	!	!	!	!	!	!	!	!	!	!	!	!	!	!	!	!	!	!	!	!	!LO:TX:a:t=[con sord.]	!	!	!	!	!	!	!	!	!	!	!	!	!	!	!	!	!	!	!	!
8GG	p	8GG	p	8GG	p	16r	.	8r	.	8r	.	8GGL	8r	.	8%3r	.	8%3r	.	8%3r	.	8%3r	.	8r	8%3rc	.	8r	.	8c]	4GG)	pp ]	4GGX)	pp	(4.e~	([4.cX	p < [	[4.G	p < [	8r	.	8r	.	8r	.
.	.	.	.	.	.	((16eLL	p <	.	.	.	.	.	.	.	.	.	.	.	.	.	.	.	.	.	.	.	.	.	.	.	.	.	.	.	.	.	.	.	.	.	.	.	.
!	!	!	!	!	!	!	!	!	!	!	!	!	!	!	!	!	!	!	!	!	!	!	!	!	!	!	!	!	!	!	!	!	!	!	!	!	!	!	!LO:DY:t=%s ma marc.	!	!	!LO:TX:a:t=2o	!
!	!	!	!	!	!	!	!	!	!	!	!	!	!	!	!	!	!	!	!	!	!	!	!	!	!	!	!	!	!	!	!	!	!	!	!	!	!	!	!	!	!	!LO:S:b	!
8r	.	8r	.	8r	.	16c	.	([4gg~	p	([4gg~	p	8G	8gL	mf	.	.	.	.	.	.	.	.	8r	.	.	8G~ 8g	pp	8r	.	.	.	.	.	.	.	.	.	16e'LL 16g	p	([4gg~	f	([4gg~	mf
.	.	.	.	.	.	16e	.	.	.	.	.	.	.	.	.	.	.	.	.	.	.	.	.	.	.	.	.	.	.	.	.	.	.	.	.	.	.	16e'JJ 16g	.	.	.	.	.
*	*	*	*	*	*	*	*	*	*	*	*	*	*	*	*	*	*	*	*	*	*	*	*	*	*	*	*	*	*	*	*^	*	*	*	*	*	*	*	*	*	*	*	*
!	!	!	!	!	!	!	!	!	!	!	!	!	!	!	!	!	!	!	!	!	!	!	!	!	!LO:DY:ed=brack:a	!	!	!	!	!	!	!	!	!	!	!	!	!	!	!	!	!	!	!
8GG	.	8GG	.	8GG	.	16c	.	.	.	.	.	8GGJ	8eJ	.	.	.	.	.	.	.	.	.	8e'	.	pp	8r	.	8r	8r	.	8ryy	8r	.	.	.	.	.	.	8e'~ 8b	.	.	.	.	.
.	.	.	.	.	.	16eJJ)	[	.	.	.	.	.	.	.	.	.	.	.	.	.	.	.	.	.	.	.	.	.	.	.	.	.	.	.	.	.	.	.	.	.	.	.	.	.
*	*	*	*	*	*	*	*	*	*	*	*	*	*	*	*	*	*	*	*	*	*	*	*	*	*	*	*	*v	*v	*	*	*	*	*	*	*	*	*	*	*	*	*	*	*
*	*	*	*	*	*	*	*	*	*	*	*	*	*	*	*	*	*	*	*	*	*	*	*	*	*	*	*	*	*	*v	*v	*	*	*	*	*	*	*	*	*	*	*	*
=5	=5	=5	=5	=5	=5	=5	=5	=5	=5	=5	=5	=5	=5	=5	=5	=5	=5	=5	=5	=5	=5	=5	=5	=5	=5	=5	=5	=5	=5	=5	=5	=5	=5	=5	=5	=5	=5	=5	=5	=5	=5	=5
8D	.	8DL	.	8DL	.	(16cLL	>	16ggLL]	.	16ggLL]	.	8DL	8fL	.	8%3r	.	8%3r	.	8%3r	.	8%3r	.	8f'	8%3r	.	8r	.	8%3r	.	8%3r	.	4.fX~	4c]	>	4.G_	> ]	8r	.	16ggLL]	.	16ggLL]	.
.	.	.	.	.	.	16fn	.	16aa	.	16aa	.	.	.	.	.	.	.	.	.	.	.	.	.	.	.	.	.	.	.	.	.	.	.	.	.	.	.	.	16aa	.	16aa	.
8r	.	8G	.	8G	.	16c	.	16bb	.	16bb	.	8G	8g	.	.	.	.	.	.	.	.	.	8r	.	.	8G~ 8g	.	.	.	.	.	.	.	.	.	.	16f'LL 16g	.	16bb	.	16bb	.
.	.	.	.	.	.	16f	.	16ccc	.	16ccc	.	.	.	.	.	.	.	.	.	.	.	.	.	.	.	.	.	.	.	.	.	.	.	.	.	.	16f'JJ 16g	.	16ccc	.	16ccc	.
8r	.	8GGJ	.	8GGJ	.	16B	.	16aa	.	16aa	.	8GGJ	8fJ	.	.	.	.	.	.	.	.	.	8f'	.	.	8r	.	.	.	.	.	.	8B	]]	.	.	8f'~ 8b	.	16aa	.	16aa	.
.	.	.	.	.	.	16fJJ))	]	16bbJJ	.	16bbJJ	.	.	.	.	.	.	.	.	.	.	.	.	.	.	.	.	.	.	.	.	.	.	.	.	.	.	.	.	16bbJJ	.	16bbJJ	.
=6	=6	=6	=6	=6	=6	=6	=6	=6	=6	=6	=6	=6	=6	=6	=6	=6	=6	=6	=6	=6	=6	=6	=6	=6	=6	=6	=6	=6	=6	=6	=6	=6	=6	=6	=6	=6	=6	=6	=6	=6	=6	=6
8C	.	8C	.	8C	.	((16cLL	<	8gg')	.	8gg')	.	8CL	8eL	.	8%3r	.	8%3r	.	8%3r	.	8%3r	.	8e'	8%3r	.	8r	.	8%3r	.	8%3r	.	4.e)	4.cX)	.	4.G_	.	8r	.	[4.gg	.	[4.gg	.
.	.	.	.	.	.	16e	.	.	.	.	.	.	.	.	.	.	.	.	.	.	.	.	.	.	.	.	.	.	.	.	.	.	.	.	.	.	.	.	.	.	.	.
8r	.	8r	.	8r	.	16c	.	([4gg~	.	([4gg~	.	8G	8g	.	.	.	.	.	.	.	.	.	8r	.	.	8G~ 8g	.	.	.	.	.	.	.	.	.	.	16e'LL 16g	.	.	.	.	.
.	.	.	.	.	.	16e	.	.	.	.	.	.	.	.	.	.	.	.	.	.	.	.	.	.	.	.	.	.	.	.	.	.	.	.	.	.	16e'JJ 16g	.	.	.	.	.
8GG	.	8GG	.	8GG	.	16c	.	.	.	.	.	8GGJ	8eJ	.	.	.	.	.	.	.	.	.	8e'	.	.	8r	.	.	.	.	.	.	.	.	.	.	8e'~ 8b	.	.	.	.	.
.	.	.	.	.	.	16eJJ)	[	.	.	.	.	.	.	.	.	.	.	.	.	.	.	.	.	.	.	.	.	.	.	.	.	.	.	.	.	.	.	.	.	.	.	.
=7	=7	=7	=7	=7	=7	=7	=7	=7	=7	=7	=7	=7	=7	=7	=7	=7	=7	=7	=7	=7	=7	=7	=7	=7	=7	=7	=7	=7	=7	=7	=7	=7	=7	=7	=7	=7	=7	=7	=7	=7	=7	=7
8D	.	8DL	.	8DL	.	(16cLL	>	16ggLL]	.	16ggLL]	.	8DL	8fL	.	8%3r	.	8%3r	.	8%3r	.	8%3r	.	8f'	8%3r	.	8r	.	8%3r	.	8%3r	.	(4.fX~	(4cX~	>	4.G_	> ]	8r	.	16ggLL]	.	16ggLL]	.
.	.	.	.	.	.	16f	.	16aa	.	16aa	.	.	.	.	.	.	.	.	.	.	.	.	.	.	.	.	.	.	.	.	.	.	.	.	.	.	.	.	16aa	.	16aa	.
8r	.	8G	.	8G	.	16c	.	16bb	.	16bb	.	8G	8g	.	.	.	.	.	.	.	.	.	8r	.	.	8G~ 8g	.	.	.	.	.	.	.	.	.	.	16f'LL 16g	.	16bb	.	16bb	.
.	.	.	.	.	.	16f	.	16ccc	.	16ccc	.	.	.	.	.	.	.	.	.	.	.	.	.	.	.	.	.	.	.	.	.	.	.	.	.	.	16f'JJ 16g	.	16ccc	.	16ccc	.
8r	.	8GGJ	.	8GGJ	.	16B	.	16aa	.	16aa	.	8GGJ	8fJ	.	.	.	.	.	.	.	.	.	8f'	.	.	8r	.	.	.	.	.	.	8B	]]	.	.	8f'~ 8b	.	16aa	.	16aa	.
.	.	.	.	.	.	16fJJ))	]	16bbJJ	.	16bbJJ	.	.	.	.	.	.	.	.	.	.	.	.	.	.	.	.	.	.	.	.	.	.	.	.	.	.	.	.	16bbJJ	.	16bbJJ	.
=8	=8	=8	=8	=8	=8	=8	=8	=8	=8	=8	=8	=8	=8	=8	=8	=8	=8	=8	=8	=8	=8	=8	=8	=8	=8	=8	=8	=8	=8	=8	=8	=8	=8	=8	=8	=8	=8	=8	=8	=8	=8	=8
*	*	*	*	*	*	*	*	*	*	*	*	*	*	*	*	*	*	*	*	*	*	*	*	*	*	*	*	*^	*	*	*	*	*	*	*	*	*	*	*	*	*^	*
!	!	!	!	!	!	!	!	!	!	!	!	!	!	!	!	!	!	!	!	!	!	!	!	!	!	!	!	!LO:TX:a:t=2o	!	!	!	!	!	!	!	!	!	!	!	!	!	!	!	!
8C	.	8C	.	8C	.	(16cLL	<	8gg')	.	8gg')	.	8CL	8eL	.	8%3r	.	8%3r	.	8%3r	.	8%3r	.	8e'	8%3r	.	8r	.	8%3r	8rCC	mf	8%3r	.	4.e)	4.cX)	.	(4G]	.	8r	.	4.gg)	.	8rddd)	4gg	.
.	.	.	.	.	.	16e	.	.	.	.	.	.	.	.	.	.	.	.	.	.	.	.	.	.	.	.	.	.	.	.	.	.	.	.	.	.	.	.	.	.	.	.	.	.
*	*	*	*	*	*	*	*	*	*	*	*	*	*	*	*	*	*	*	*	*	*	*	*	*	*	*	*	*	*	*	*	*	*	*	*	*	*	*^	*	*	*	*	*	*
!	!	!LO:TX:a:t=gli altri	!	!LO:TX:a:t=1 solo	!	!	!	!	!	!	!	!	!	!	!	!	!	!	!	!	!	!	!	!	!	!	!	!	!	!	!	!	!	!	!	!	!	!	!	!	!	!	!	!	!
8r	.	8r	.	8r	.	16c	.	8r	.	8r	.	8G	8g	.	.	.	.	.	.	.	.	.	8r	.	.	8G~ 8g	.	.	8rCC	.	.	.	.	.	.	.	.	16e'LL 16g	8ryy	.	.	.	8r	.	.
.	.	.	.	.	.	16e	.	.	.	.	.	.	.	.	.	.	.	.	.	.	.	.	.	.	.	.	.	.	.	.	.	.	.	.	.	.	.	16e'JJ 16g	.	.	.	.	.	.	.
*	*	*	*	*clefC4	*	*	*	*	*	*	*	*	*	*	*	*	*	*	*	*	*	*	*	*	*	*	*	*	*	*	*	*	*	*	*	*	*	*	*	*	*	*	*	*	*
!	!	!LO:TX:a:t=arco	!	!LO:TX:a:t=arco	!	!	!	!	!	!	!	!	!	!	!	!	!	!	!	!	!	!	!	!	!	!	!	!	!	!	!	!	!	!	!	!	!	!	!	!	!	!	!	!	!
!	!	!	!LO:DY:t=%s espr.	!	!LO:DY:t=%s espr.	!	!	!	!	!	!	!	!	!	!	!	!	!	!	!	!	!	!	!	!LO:DY:a	!	!	!	!	!	!	!	!	!	!	!	!	!LO:TX:a:B:i:t=f	!	!	!	!	!LO:TX:a:t=a 2	!	!
8r	.	(8E	mf	(8e	mf	16c	.	([8gg~	mf	([8gg~	mf	8EJ	8eJ	.	.	.	.	.	.	.	.	.	(8e	.	mf	8r	.	.	(8E	.	.	.	.	.	.	(8E)	.	([8gg~	(8e	mf	.	.	([8gg~	[8gg~	.
.	.	.	.	.	.	16eJJ)	.	.	.	.	.	.	.	.	.	.	.	.	.	.	.	.	.	.	.	.	.	.	.	.	.	.	.	.	.	.	.	.	.	.	.	.	.	.	.
*	*	*	*	*	*	*	*	*	*	*	*	*	*	*	*	*	*	*	*	*	*	*	*	*	*	*	*	*	*	*	*	*	*	*	*	*	*	*	*	*	*	*	*v	*v	*
=9	=9	=9	=9	=9	=9	=9	=9	=9	=9	=9	=9	=9	=9	=9	=9	=9	=9	=9	=9	=9	=9	=9	=9	=9	=9	=9	=9	=9	=9	=9	=9	=9	=9	=9	=9	=9	=9	=9	=9	=9	=9	=9	=9	=9
*	*	*	*	*	*	*^	*	*	*	*	*	*	*	*	*	*	*	*	*	*	*	*	*	*	*	*^	*	*	*	*	*	*	*	*	*	*	*	*	*	*	*	*	*	*
*	*	*	*	*	*	*tremolo	*	*	*	*	*	*	*	*	*	*	*	*	*	*	*	*	*	*	*	*	*	*	*	*	*	*	*	*	*	*	*	*	*	*	*	*	*	*	*	*
!	!	!	!	!	!	!LO:TX:a:t=div.	!	!	!	!	!	!	!	!	!	!	!	!	!	!	!	!	!	!	!	!	!LO:TX:a:t=1o	!	!	!	!	!	!	!	!	!	!	!	!	!	!	!	!	!	!	!
8%3r	.	8FL	.	8dL	.	8dOOL	4dOOO	mf	16ggLL]	.	16ggLL]	.	8FL	8dL	.	8%3r	.	8%3r	.	8%3r	.	8%3r	.	4d	8%3r	.	8r	8%3r	.	8%3rg	8FL	.	8%3r	.	(8dL	(8dL	mf	8F)	.	16ggLL]	8dL	.	8%3r	.	16ggLL]	.
.	.	.	.	.	.	.	.	.	.	.	.	.	.	.	.	.	.	.	.	.	.	.	.	.	.	.	.	.	.	.	.	.	.	.	.	.	.	.	.	.	.	.	.	.	.	.
.	.	.	.	.	.	.	.	.	16ff	.	16ff	.	.	.	.	.	.	.	.	.	.	.	.	.	.	.	.	.	.	.	.	.	.	.	.	.	.	.	.	16ff	.	.	.	.	16ff	.
.	.	.	.	.	.	.	.	.	.	.	.	.	.	.	.	.	.	.	.	.	.	.	.	.	.	.	.	.	.	.	.	.	.	.	.	.	.	.	.	.	.	.	.	.	.	.
.	.	8d	.	8b	.	8bOO	.	.	16ee	.	16ee	.	8r	8b	.	.	.	.	.	.	.	.	.	.	.	.	(8bXL	.	mf	.	8d	.	.	.	8b	8b	.	8r	.	16ee	8b	.	.	.	16ee	.
.	.	.	.	.	.	.	.	.	.	.	.	.	.	.	.	.	.	.	.	.	.	.	.	.	.	.	.	.	.	.	.	.	.	.	.	.	.	.	.	.	.	.	.	.	.	.
.	.	.	.	.	.	.	.	.	16dd	.	16dd	.	.	.	.	.	.	.	.	.	.	.	.	.	.	.	.	.	.	.	.	.	.	.	.	.	.	.	.	16dd	.	.	.	.	16dd	.
.	.	.	.	.	.	.	.	.	.	.	.	.	.	.	.	.	.	.	.	.	.	.	.	.	.	.	.	.	.	.	.	.	.	.	.	.	.	.	.	.	.	.	.	.	.	.
.	.	8cJ	.	8aJ	.	8aOOJ	8cOO	.	16ee	.	16ee	.	8cJ	8aJ	.	.	.	.	.	.	.	.	.	8c	.	.	8aJ	.	.	.	8cJ	.	.	.	8aJ	8aJ	.	8r	.	16ee	8aJ	.	.	.	16ee	.
.	.	.	.	.	.	.	.	.	.	.	.	.	.	.	.	.	.	.	.	.	.	.	.	.	.	.	.	.	.	.	.	.	.	.	.	.	.	.	.	.	.	.	.	.	.	.
!	!	!	!	!	!	!	!	!	!	!	!	!	!	!	!	!	!	!	!	!	!	!	!	!	!	!	!	!	!	!	!	!	!	!	!	!	!	!	!	!LO:S:b	!	!	!	!	!	!
.	.	.	.	.	.	.	.	.	(8qgg/	.	(8qgg/	.	.	.	.	.	.	.	.	.	.	.	.	.	.	.	.	.	.	.	.	.	.	.	.	.	.	.	.	(8qgg/	.	.	.	.	(8qgg/	.
.	.	.	.	.	.	.	.	.	16ffJJ))	.	16ffJJ))	.	.	.	.	.	.	.	.	.	.	.	.	.	.	.	.	.	.	.	.	.	.	.	.	.	.	.	.	16ffJJ)	.	.	.	.	16ffJJ)	.
.	.	.	.	.	.	.	.	.	.	.	.	.	.	.	.	.	.	.	.	.	.	.	.	.	.	.	.	.	.	.	.	.	.	.	.	.	.	.	.	.	.	.	.	.	.	.
=10	=10	=10	=10	=10	=10	=10	=10	=10	=10	=10	=10	=10	=10	=10	=10	=10	=10	=10	=10	=10	=10	=10	=10	=10	=10	=10	=10	=10	=10	=10	=10	=10	=10	=10	=10	=10	=10	=10	=10	=10	=10	=10	=10	=10	=10	=10
!LO:TX:a:t=tutti	!	!	!	!	!	!	!	!	!	!	!	!	!	!	!	!	!	!	!	!	!	!LO:TX:a:t=sempre con sord.	!	!	!	!	!	!	!	!	!	!	!	!	!	!	!	!	!	!	!	!	!	!	!	!
8r	.	8B)	.	4.g#X)	> ]	8g#XOO	4.BOOO	.	8ee	.	8ee	.	8B	8g#X	.	8%3r	.	8r	.	8r	.	8r	.	4BX)	8%3r	>	4g#X)	8%3r	>	8%3r	4B)	.	8r	.	8g#)	8g#)	.	8r	.	4ee)	4g#X)	.	8%3r	.	8ee')	.
.	.	.	.	.	.	.	.	.	.	.	.	.	.	.	.	.	.	.	.	.	.	.	.	.	.	.	.	.	.	.	.	.	.	.	.	.	.	.	.	.	.	.	.	.	.	.
.	.	.	.	.	.	.	.	.	.	.	.	.	.	.	.	.	.	.	.	.	.	.	.	.	.	.	.	.	.	.	.	.	.	.	.	.	.	.	.	.	.	.	.	.	.	.
.	.	.	.	.	.	.	.	.	.	.	.	.	.	.	.	.	.	.	.	.	.	.	.	.	.	.	.	.	.	.	.	.	.	.	.	.	.	.	.	.	.	.	.	.	.	.
*	*	*	*	*	*	*	*	*	*	*	*	*	*	*	*	*	*	*	*	*	*	*	*	*	*	*	*	*	*	*	*	*	*	*	*v	*v	*	*	*	*	*	*	*	*	*	*
8r	.	8r	.	.	.	4e 4g#OOO	.	pp <	(16g#XLL	pp <	[4btt	pp <	8ryy	8b'L	pp	.	.	24Re\LL	pp	8r	.	24BLL 24b	pp	.	.	.	.	.	.	.	.	.	8r	.	(8B'L 8e	p	(16g#XLL	pp <	.	.	.	.	.	(16g#XLL	mf <
.	.	.	.	.	.	.	.	.	.	.	.	.	.	.	.	.	.	.	.	.	.	.	.	.	.	.	.	.	.	.	.	.	.	.	.	.	.	.	.	.	.	.	.	.	.
.	.	.	.	.	.	.	.	.	.	.	.	.	.	.	.	.	.	24Re\	.	.	.	24B 24b	.	.	.	.	.	.	.	.	.	.	.	.	.	.	.	.	.	.	.	.	.	.	.
.	.	.	.	.	.	.	.	.	16e	.	.	.	.	.	.	.	.	.	.	.	.	.	.	.	.	.	.	.	.	.	.	.	.	.	.	.	16bX	.	.	.	.	.	.	16b	.
.	.	.	.	.	.	.	.	.	.	.	.	.	.	.	.	.	.	24Re\J	.	.	.	24BJ 24b	.	.	.	.	.	.	.	.	.	.	.	.	.	.	.	.	.	.	.	.	.	.	.
.	.	.	.	.	.	.	.	.	.	.	.	.	.	.	.	.	.	.	.	.	.	.	.	.	.	.	.	.	.	.	.	.	.	.	.	.	.	.	.	.	.	.	.	.	.
!LO:TX:a:t=arco	!	!	!	!	!	!	!	!	!	!	!	!	!	!	!	!	!	!	!	!	!	!	!	!	!	!	!	!	!	!	!	!	!	!	!	!	!	!	!	!	!	!	!	!	!
!LO:TX:b:i:t=  ma marc.	!	!	!LO:DY:t=%s ma marc.	!	!	!	!	!	!	!	!	!	!	!	!	!	!	!	!	!	!	!	!	!	!	!	!	!	!	!	!	!LO:DY:t=%s marc.	!	!LO:DY:t=%s marc.	!	!	!	!	!	!	!	!	!	!	!
[8BBB~	p	[8BB~	p	.	.	.	.	.	16g#	.	.	.	8ryy	8B'<J	.	.	.	8Re\J	.	8BB	p	8B'J 8b	.	8r	.	]	8r	.	]	.	[8BB~	p	[8BB~	p	8B'J 8e	.	16g#	.	8r	8r	.	.	.	16g#	.
.	.	.	.	.	.	.	.	.	.	.	.	.	.	.	.	.	.	.	.	.	.	.	.	.	.	.	.	.	.	.	.	.	.	.	.	.	.	.	.	.	.	.	.	.	.
.	.	.	.	.	.	.	.	.	16eJJ)	.	.	.	.	.	.	.	.	.	.	.	.	.	.	.	.	.	.	.	.	.	.	.	.	.	.	.	16bJJ	.	.	.	.	.	.	16bJJ	.
.	.	.	.	.	.	.	.	.	.	.	.	.	.	.	.	.	.	.	.	.	.	.	.	.	.	.	.	.	.	.	.	.	.	.	.	.	.	.	.	.	.	.	.	.	.
*	*	*	*	*	*	*	*	*	*	*	*	*	*	*	*	*	*	*	*	*	*	*	*	*v	*v	*	*	*	*	*	*	*	*	*	*	*	*	*	*v	*v	*	*	*	*	*
*	*	*	*	*	*	*	*	*	*	*	*	*	*	*	*	*	*	*	*	*	*	*	*	*	*	*v	*v	*	*	*	*	*	*	*	*	*	*	*	*	*	*	*	*
=11	=11	=11	=11	=11	=11	=11	=11	=11	=11	=11	=11	=11	=11	=11	=11	=11	=11	=11	=11	=11	=11	=11	=11	=11	=11	=11	=11	=11	=11	=11	=11	=11	=11	=11	=11	=11	=11	=11	=11	=11	=11	=11
16BBBLL]	.	16BBLL]	.	[4.Bt	pp < [	4.f 4.aOOO	4.BOOO	.	(16aLL	.	4.b_ttt	[	8%3ryy	8r	.	8%3r	.	8r	.	8r	.	8r	.	8%3r	.	8%3r	.	8%3rc	16BBLL]	.	16BBLL]	.	8B'L 8fX	.	16aLL	.	8%3r	.	8%3r	.	16aLL	.
.	.	.	.	.	.	.	.	.	.	.	.	.	.	.	.	.	.	.	.	.	.	.	.	.	.	.	.	.	.	.	.	.	.	.	.	.	.	.	.	.	.	.
16CC	.	16C	.	.	.	.	.	.	16f	.	.	.	.	.	.	.	.	.	.	.	.	.	.	.	.	.	.	.	16C	.	16C#	.	.	.	16bX	.	.	.	.	.	16b	.
.	.	.	.	.	.	.	.	.	.	.	.	.	.	.	.	.	.	.	.	.	.	.	.	.	.	.	.	.	.	.	.	.	.	.	.	.	.	.	.	.	.	.
16DD	.	16D	.	.	.	.	.	.	16a	.	.	.	.	8b'L	.	.	.	24Re\LL	.	8r	.	24BLL 24b	.	.	.	.	.	.	16D	.	16D	.	8B' 8f	.	16a	.	.	.	.	.	16a	.
.	.	.	.	.	.	.	.	.	.	.	.	.	.	.	.	.	.	.	.	.	.	.	.	.	.	.	.	.	.	.	.	.	.	.	.	.	.	.	.	.	.	.
.	.	.	.	.	.	.	.	.	.	.	.	.	.	.	.	.	.	24Re\	.	.	.	24B 24b	.	.	.	.	.	.	.	.	.	.	.	.	.	.	.	.	.	.	.	.
16EE	.	16E	.	.	.	.	.	.	16f	.	.	.	.	.	.	.	.	.	.	.	.	.	.	.	.	.	.	.	16E	.	16E	.	.	.	16b	.	.	.	.	.	16b	.
.	.	.	.	.	.	.	.	.	.	.	.	.	.	.	.	.	.	24Re\J	.	.	.	24BJ 24b	.	.	.	.	.	.	.	.	.	.	.	.	.	.	.	.	.	.	.	.
.	.	.	.	.	.	.	.	.	.	.	.	.	.	.	.	.	.	.	.	.	.	.	.	.	.	.	.	.	.	.	.	.	.	.	.	.	.	.	.	.	.	.
16CC	.	16C	.	.	.	.	.	[	16a	.	.	.	.	8B'<J	.	.	.	8Re\J	.	8BB	.	8B'J 8b	.	.	.	.	.	.	16C	.	16C#	.	8B'J 8f	.	16a	.	.	.	.	.	16a	.
.	.	.	.	.	.	.	.	.	.	.	.	.	.	.	.	.	.	.	.	.	.	.	.	.	.	.	.	.	.	.	.	.	.	.	.	.	.	.	.	.	.	.
16DDJJ	.	16DJJ	.	.	.	.	.	.	16fJJ)	[	.	.	.	.	.	.	.	.	.	.	.	.	.	.	.	.	.	.	16DJJ	.	16DJJ	.	.	.	16bJJ	[	.	.	.	.	16bJJ	[
.	.	.	.	.	.	.	.	.	.	.	.	.	.	.	.	.	.	.	.	.	.	.	.	.	.	.	.	.	.	.	.	.	.	.	.	.	.	.	.	.	.	.
=12	=12	=12	=12	=12	=12	=12	=12	=12	=12	=12	=12	=12	=12	=12	=12	=12	=12	=12	=12	=12	=12	=12	=12	=12	=12	=12	=12	=12	=12	=12	=12	=12	=12	=12	=12	=12	=12	=12	=12	=12	=12	=12
8BBB'	.	8BB'	.	4.B_	.	4.e 4.g#X	4.BOOO	>	(16g#XLL	>	4.b_ttt	>	8%3r	8r	.	8%3r	.	8r	.	8r	.	8r	.	8%3r	.	8%3r	.	8%3rc	[4.BB	.	[4.BB	.	8B'L 8e	.	16g#XLL	>	8%3r	.	8%3r	.	16g#XLL	>
.	.	.	.	.	.	.	.	.	.	.	.	.	.	.	.	.	.	.	.	.	.	.	.	.	.	.	.	.	.	.	.	.	.	.	.	.	.	.	.	.	.	.
.	.	.	.	.	.	.	.	.	16e	.	.	.	.	.	.	.	.	.	.	.	.	.	.	.	.	.	.	.	.	.	.	.	.	.	16bX	.	.	.	.	.	16b	.
.	.	.	.	.	.	.	.	.	.	.	.	.	.	.	.	.	.	.	.	.	.	.	.	.	.	.	.	.	.	.	.	.	.	.	.	.	.	.	.	.	.	.
8r	.	8r	.	.	.	.	.	.	16g#	.	.	.	.	8b'L	.	.	.	24Re\LL	.	8r	.	24BLL 24b	.	.	.	.	.	.	.	.	.	.	8B' 8e	.	16g#	.	.	.	.	.	16g#	.
.	.	.	.	.	.	.	.	.	.	.	.	.	.	.	.	.	.	.	.	.	.	.	.	.	.	.	.	.	.	.	.	.	.	.	.	.	.	.	.	.	.	.
.	.	.	.	.	.	.	.	.	.	.	.	.	.	.	.	.	.	24Re\	.	.	.	24B 24b	.	.	.	.	.	.	.	.	.	.	.	.	.	.	.	.	.	.	.	.
.	.	.	.	.	.	.	.	.	16e	.	.	.	.	.	.	.	.	.	.	.	.	.	.	.	.	.	.	.	.	.	.	.	.	.	16b	.	.	.	.	.	16b	.
.	.	.	.	.	.	.	.	.	.	.	.	.	.	.	.	.	.	24Re\J	.	.	.	24BJ 24b	.	.	.	.	.	.	.	.	.	.	.	.	.	.	.	.	.	.	.	.
.	.	.	.	.	.	.	.	.	.	.	.	.	.	.	.	.	.	.	.	.	.	.	.	.	.	.	.	.	.	.	.	.	.	.	.	.	.	.	.	.	.	.
[8BBB~	.	[8BB~	.	.	.	.	.	.	16g#	.	.	.	.	8B'<J	.	.	.	8Re\J	.	8BB	.	8B'J 8b	.	.	.	.	.	.	.	.	.	.	8B'J 8e	.	16g#	.	.	.	.	.	16g#	.
.	.	.	.	.	.	.	.	.	.	.	.	.	.	.	.	.	.	.	.	.	.	.	.	.	.	.	.	.	.	.	.	.	.	.	.	.	.	.	.	.	.	.
.	.	.	.	.	.	.	.	.	16eJJ)	.	.	.	.	.	.	.	.	.	.	.	.	.	.	.	.	.	.	.	.	.	.	.	.	.	16bJJ	.	.	.	.	.	16bJJ	.
.	.	.	.	.	.	.	.	.	.	.	.	.	.	.	.	.	.	.	.	.	.	.	.	.	.	.	.	.	.	.	.	.	.	.	.	.	.	.	.	.	.	.
=13	=13	=13	=13	=13	=13	=13	=13	=13	=13	=13	=13	=13	=13	=13	=13	=13	=13	=13	=13	=13	=13	=13	=13	=13	=13	=13	=13	=13	=13	=13	=13	=13	=13	=13	=13	=13	=13	=13	=13	=13	=13	=13
16BBBLL]	.	16BBLL]	.	4.B]	> ]	4.f 4.aOOO	4.BOOO	.	(16aLL	.	4.b_ttt	]	8%3r	8r	.	8%3r	.	8r	.	8r	.	8r	.	8%3r	.	8%3r	.	8%3rc	16BBLL]	.	16BBLL]	.	8B'L 8fX	.	16aLL	.	8%3r	.	8%3r	.	16aLL	.
.	.	.	.	.	.	.	.	.	.	.	.	.	.	.	.	.	.	.	.	.	.	.	.	.	.	.	.	.	.	.	.	.	.	.	.	.	.	.	.	.	.	.
16CC	.	16C	.	.	.	.	.	.	16f	.	.	.	.	.	.	.	.	.	.	.	.	.	.	.	.	.	.	.	16C	.	16C#	.	.	.	16bX	.	.	.	.	.	16b	.
.	.	.	.	.	.	.	.	.	.	.	.	.	.	.	.	.	.	.	.	.	.	.	.	.	.	.	.	.	.	.	.	.	.	.	.	.	.	.	.	.	.	.
16DD	.	16D	.	.	.	.	.	.	16a	.	.	.	.	8b'L	.	.	.	24Re\LL	.	8r	.	24BLL 24b	.	.	.	.	.	.	16D	.	16D	.	8B' 8f	.	16a	.	.	.	.	.	16a	.
.	.	.	.	.	.	.	.	.	.	.	.	.	.	.	.	.	.	.	.	.	.	.	.	.	.	.	.	.	.	.	.	.	.	.	.	.	.	.	.	.	.	.
.	.	.	.	.	.	.	.	.	.	.	.	.	.	.	.	.	.	24Re\	.	.	.	24B 24b	.	.	.	.	.	.	.	.	.	.	.	.	.	.	.	.	.	.	.	.
16EE	.	16E	.	.	.	.	.	.	16f	.	.	.	.	.	.	.	.	.	.	.	.	.	.	.	.	.	.	.	16E	.	16E	.	.	.	16b	.	.	.	.	.	16b	.
.	.	.	.	.	.	.	.	.	.	.	.	.	.	.	.	.	.	24Re\J	.	.	.	24BJ 24b	.	.	.	.	.	.	.	.	.	.	.	.	.	.	.	.	.	.	.	.
.	.	.	.	.	.	.	.	.	.	.	.	.	.	.	.	.	.	.	.	.	.	.	.	.	.	.	.	.	.	.	.	.	.	.	.	.	.	.	.	.	.	.
16CC	.	16C	.	.	.	.	.	]	16a	.	.	.	.	8B'<J	.	.	.	8Re\J	.	8BB	.	8B'J 8b	.	.	.	.	.	.	16C	.	16C#	.	8B'J 8f	.	16a	.	.	.	.	.	16a	.
.	.	.	.	.	.	.	.	.	.	.	.	.	.	.	.	.	.	.	.	.	.	.	.	.	.	.	.	.	.	.	.	.	.	.	.	.	.	.	.	.	.	.
16DDJJ	.	16DJJ	.	.	.	.	.	.	16fJJ)	]	.	.	.	.	.	.	.	.	.	.	.	.	.	.	.	.	.	.	16DJJ	.	16DJJ	.	.	.	16bJJ	]	.	.	.	.	16bJJ	]
.	.	.	.	.	.	.	.	.	.	.	.	.	.	.	.	.	.	.	.	.	.	.	.	.	.	.	.	.	.	.	.	.	.	.	.	.	.	.	.	.	.	.
=14	=14	=14	=14	=14	=14	=14	=14	=14	=14	=14	=14	=14	=14	=14	=14	=14	=14	=14	=14	=14	=14	=14	=14	=14	=14	=14	=14	=14	=14	=14	=14	=14	=14	=14	=14	=14	=14	=14	=14	=14	=14	=14
4BBB	>	4BB	>	(4B	<	4.e 4.g#XOOO	4BOOO	<	(16g#XLL	<	4.b_ttt	< [	8%3r	8r	.	8%3r	.	8r	.	8r	.	8r	.	8%3r	.	8%3r	.	4B	8BB'	p <	8BB'	.	8B' 8e)	.	16g#XLL	<	8%3r	.	8%3r	.	16g#XLL	<
.	.	.	.	.	.	.	.	.	.	.	.	.	.	.	.	.	.	.	.	.	.	.	.	.	.	.	.	.	.	.	.	.	.	.	.	.	.	.	.	.	.	.
.	.	.	.	.	.	.	.	.	16e	.	.	.	.	.	.	.	.	.	.	.	.	.	.	.	.	.	.	.	.	.	.	.	.	.	16bX	.	.	.	.	.	16b	.
.	.	.	.	.	.	.	.	.	.	.	.	.	.	.	.	.	.	.	.	.	.	.	.	.	.	.	.	.	.	.	.	.	.	.	.	.	.	.	.	.	.	.
.	.	.	.	.	.	.	.	.	16g#	.	.	.	.	8b'L	.	.	.	24Re\LL	.	8r	.	24BLL 24b	.	.	.	.	.	.	8rCC	.	8r	.	8r	.	16g#	.	.	.	.	.	16g#	.
.	.	.	.	.	.	.	.	.	.	.	.	.	.	.	.	.	.	.	.	.	.	.	.	.	.	.	.	.	.	.	.	.	.	.	.	.	.	.	.	.	.	.
.	.	.	.	.	.	.	.	.	.	.	.	.	.	.	.	.	.	24Re\	.	.	.	24B 24b	.	.	.	.	.	.	.	.	.	.	.	.	.	.	.	.	.	.	.	.
.	.	.	.	.	.	.	.	.	16e	.	.	.	.	.	.	.	.	.	.	.	.	.	.	.	.	.	.	.	.	.	.	.	.	.	16b	.	.	.	.	.	16b	.
.	.	.	.	.	.	.	.	.	.	.	.	.	.	.	.	.	.	24Re\J	.	.	.	24BJ 24b	.	.	.	.	.	.	.	.	.	.	.	.	.	.	.	.	.	.	.	.
.	.	.	.	.	.	.	.	.	.	.	.	.	.	.	.	.	.	.	.	.	.	.	.	.	.	.	.	.	.	.	.	.	.	.	.	.	.	.	.	.	.	.
8r	]	8r	]	[8eL	[	.	8eOOL	[	16g#	.	.	.	.	8B'<J	.	.	.	8Re\J	.	8BB	.	8B'J 8b	.	.	.	.	.	([8eL	8rCC	[	8r	.	8r	.	16g#	.	.	.	.	.	16g#	.
.	.	.	.	.	.	.	.	.	.	.	.	.	.	.	.	.	.	.	.	.	.	.	.	.	.	.	.	.	.	.	.	.	.	.	.	.	.	.	.	.	.	.
.	.	.	.	.	.	.	.	.	16eJJ)	[	.	.	.	.	.	.	.	.	.	.	.	.	.	.	.	.	.	.	.	.	.	.	.	.	16bJJ	[	.	.	.	.	16bJJ	[
.	.	.	.	.	.	.	.	.	.	.	.	.	.	.	.	.	.	.	.	.	.	.	.	.	.	.	.	.	.	.	.	.	.	.	.	.	.	.	.	.	.	.
=15	=15	=15	=15	=15	=15	=15	=15	=15	=15	=15	=15	=15	=15	=15	=15	=15	=15	=15	=15	=15	=15	=15	=15	=15	=15	=15	=15	=15	=15	=15	=15	=15	=15	=15	=15	=15	=15	=15	=15	=15	=15	=15
!LO:TX:a:t=pizz.	!	!	!	!	!	!	!	!	!	!	!	!	!	!	!	!	!	!	!	!	!	!	!	!	!	!	!	!	!	!	!	!	!	!	!	!	!	!	!	!	!	!
8EE	.	8r	.	8eJ]	>	4.g#XOOO	8eOOJ	>	(16g#XLL	>	4b]ttt	>	8%3r	8%3r	.	8%3r	.	8r	.	8E	.	8%3r	.	8%3r	.	8%3r	.	8eJ]	8%3rCC	.	(4.EE	.	8%3r	.	16g#XLL	>	8%3r	.	8%3r	.	16g#XLL	>
.	.	.	.	.	.	.	.	.	.	.	.	.	.	.	.	.	.	.	.	.	.	.	.	.	.	.	.	.	.	.	.	.	.	.	.	.	.	.	.	.	.	.
.	.	.	.	.	.	.	.	.	16b	.	.	.	.	.	.	.	.	.	.	.	.	.	.	.	.	.	.	.	.	.	.	.	.	.	16bX	.	.	.	.	.	16b	.
.	.	.	.	.	.	.	.	.	.	.	.	.	.	.	.	.	.	.	.	.	.	.	.	.	.	.	.	.	.	.	.	.	.	.	.	.	.	.	.	.	.	.
!	!	!LO:TX:a:t=pizz.	!	!	!	!	!	!	!	!	!	!	!	!	!	!	!	!	!	!	!	!	!	!	!	!	!	!	!	!	!	!	!	!	!	!	!	!	!	!	!	!
8r	.	8EL	.	4d	]	.	4dOOO	]	16g#	.	.	.	.	.	.	.	.	24Re\LL	.	8r	.	.	.	.	.	.	.	4d	.	> ]	.	.	.	.	16g#	.	.	.	.	.	16g#	.
.	.	.	.	.	.	.	.	.	.	.	.	.	.	.	.	.	.	.	.	.	.	.	.	.	.	.	.	.	.	.	.	.	.	.	.	.	.	.	.	.	.	.
.	.	.	.	.	.	.	.	.	.	.	.	.	.	.	.	.	.	24Re\	.	.	.	.	.	.	.	.	.	.	.	.	.	.	.	.	.	.	.	.	.	.	.	.
.	.	.	.	.	.	.	.	.	16b	.	.	.	.	.	.	.	.	.	.	.	.	.	.	.	.	.	.	.	.	.	.	.	.	.	16b	.	.	.	.	.	16b	.
.	.	.	.	.	.	.	.	.	.	.	.	.	.	.	.	.	.	24Re\J	.	.	.	.	.	.	.	.	.	.	.	.	.	.	.	.	.	.	.	.	.	.	.	.
.	.	.	.	.	.	.	.	.	.	.	.	.	.	.	.	.	.	.	.	.	.	.	.	.	.	.	.	.	.	.	.	.	.	.	.	.	.	.	.	.	.	.
8r	.	8EEJ	.	.	.	.	.	.	16g#	.	(16a#XLL	.	.	.	.	.	.	8Re\J	.	8E	.	.	.	.	.	.	.	.	.	.	.	.	.	.	16g#	.	.	.	.	.	16g#	.
.	.	.	.	.	.	.	.	.	.	.	.	.	.	.	.	.	.	.	.	.	.	.	.	.	.	.	.	.	.	.	.	.	.	.	.	.	.	.	.	.	.	.
.	.	.	.	.	.	.	.	.	16bJJ)	]	16bJJ	]	.	.	.	.	.	.	.	.	.	.	.	.	.	.	.	.	.	.	.	.	.	.	16bJJ	]	.	.	.	.	16bJJ	]
.	.	.	.	.	.	.	.	.	.	.	.	.	.	.	.	.	.	.	.	.	.	.	.	.	.	.	.	.	.	.	.	.	.	.	.	.	.	.	.	.	.	.
*	*	*	*	*	*	*Xtremolo	*	*	*	*	*	*	*	*	*	*	*	*	*	*	*	*	*	*	*	*	*	*	*	*	*	*	*	*	*	*	*	*	*	*	*	*
=16	=16	=16	=16	=16	=16	=16	=16	=16	=16	=16	=16	=16	=16	=16	=16	=16	=16	=16	=16	=16	=16	=16	=16	=16	=16	=16	=16	=16	=16	=16	=16	=16	=16	=16	=16	=16	=16	=16	=16	=16	=16	=16
*grp:A	*	*grp:A	*	*grp:A	*	*grp:A	*grp:A	*	*grp:A	*	*grp:A	*	*grp:A	*grp:A	*	*grp:B	*	*grp:B	*	*grp:B	*	*grp:B	*	*grp:B	*	*grp:B	*	*grp:A	*grp:A	*	*grp:A	*	*grp:A	*	*grp:A	*	*grp:B	*	*grp:A	*	*grp:A	*
!	!	!	!	!	!	!	!	!	!	!	!	!	!	!	!	!	!	!	!	!	!	!	!	!	!	!LO:TX:a:t=1o	!	!	!	!	!	!	!	!	!	!	!	!	!	!	!	!
!LO:TX:a:t=1. metà	!	!	!	!	!	!	!	!	!	!	!	!	!	!	!	!LO:T:lv	!	!	!	!	!	!	!	!LO:TX:a:t=3o	!LO:DY:t=%s dolce ma marc.	!	!LO:DY:t=%s dolce ma marc.	!	!	!	!	!	!LO:TX:a:t=a2	!	!	!	!	!	!	!	!	!
8AA	p	8AAL	.	4.c#X)	p	((16aLL	(16c#XLL	p p <	[4.ee	p	[4.ee)	p	8%3r	8%3r	.	[4.Re\	pp	8%3r	.	8AA	.	8%3r	.	(4a	p	(4a	p	(4.c#X)	8r	pp	4AA)	p	(16c#LL	mf <	8a')	.	8%3r	.	8%3r	.	8ee')	.
.	.	.	.	.	.	16e	16e	.	.	.	.	.	.	.	.	.	.	.	.	.	.	.	.	.	.	.	.	.	.	.	.	.	16e	.	.	.	.	.	.	.	.	.
8r	.	8E	.	.	.	16c#	16c#	.	.	.	.	.	.	.	.	.	.	.	.	8r	.	.	.	.	.	.	.	.	8E'L	.	.	.	16c#	.	8r	.	.	.	.	.	8r	.
.	.	.	.	.	.	16e	16e	.	.	.	.	.	.	.	.	.	.	.	.	.	.	.	.	.	.	.	.	.	.	.	.	.	16e	.	.	.	.	.	.	.	.	.
8EE	.	8EEJ	.	.	.	16c#	16c#	.	.	.	.	.	.	.	.	.	.	.	.	8r	.	.	.	[8g	.	[8g	.	.	8EE'J	.	8r	.	16c#	.	8r	.	.	.	.	.	8r	.
.	.	.	.	.	.	16eJJ)	16eJJ)	[	.	.	.	.	.	.	.	.	.	.	.	.	.	.	.	.	.	.	.	.	.	.	.	.	16eJJ	[	.	.	.	.	.	.	.	.
*	*	*	*	*	*	*v	*v	*	*	*	*	*	*	*	*	*	*	*	*	*	*	*	*	*	*	*	*	*	*	*	*	*	*	*	*	*	*	*	*	*	*	*
=17	=17	=17	=17	=17	=17	=17	=17	=17	=17	=17	=17	=17	=17	=17	=17	=17	=17	=17	=17	=17	=17	=17	=17	=17	=17	=17	=17	=17	=17	=17	=17	=17	=17	=17	=17	=17	=17	=17	=17	=17	=17
!	!	!	!	!	!	!LO:TX:a:t=unis.	!	!	!	!	!	!	!	!	!	!	!	!	!	!	!	!	!	!	!	!	!	!	!	!	!	!	!	!	!	!	!	!	!	!	!
8BB-X	.	8BB-XL	.	(4.d	> ]	(16dLL	>	(16eeLL]	.	(16eeLL]	.	8%3r	8%3r	.	8%3r	.	8%3r	.	8%3r	.	8%3r	.	8g]	.	8g]	.	8d)	8rCC	.	8%3r	.	16dLL	>	8%3r	.	8%3r	.	8%3r	.	8%3r	.
.	.	.	.	.	.	16e	.	16ff	.	16ff	.	.	.	.	.	.	.	.	.	.	.	.	.	.	.	.	.	.	.	.	.	16e	.	.	.	.	.	.	.	.	.
8r	.	8E	.	.	.	16d	.	16gg	.	16gg	.	.	.	.	.	.	.	.	.	.	.	.	4b-	.	4b-	.	8rc	8E'L	.	.	.	16d	.	.	.	.	.	.	.	.	.
.	.	.	.	.	.	16e	.	16aa	.	16aa	.	.	.	.	.	.	.	.	.	.	.	.	.	.	.	.	.	.	.	.	.	16e	.	.	.	.	.	.	.	.	.
8r	.	8EEJ	.	.	.	16d	.	16ff	.	16ff	.	.	.	.	.	.	.	.	.	.	.	.	.	.	.	.	8rc	8EE'J	.	.	.	16d	.	.	.	.	.	.	.	.	.
.	.	.	.	.	.	16eJJ))	]	16ggJJ)	.	16ggJJ)	.	.	.	.	.	.	.	.	.	.	.	.	.	.	.	.	.	.	.	.	.	16eJJ	]	.	.	.	.	.	.	.	.
=18	=18	=18	=18	=18	=18	=18	=18	=18	=18	=18	=18	=18	=18	=18	=18	=18	=18	=18	=18	=18	=18	=18	=18	=18	=18	=18	=18	=18	=18	=18	=18	=18	=18	=18	=18	=18	=18	=18	=18	=18	=18
!	!	!	!	!	!	!	!	!	!	!	!	!	!	!	!LO:T:lv	!	!	!	!	!	!	!	!	!	!	!	!	!	!	!	!	!	!	!	!	!	!	!	!	!	!
8AA	.	8AAL	.	4.c#X)	.	((16c#XLL	<	[4.ee	.	[4.ee	.	8%3r	8%3r	.	[4.Re\	.	8%3r	.	8%3r	.	8%3r	.	4a	.	4a	.	(4.c#X	8rCC	.	8%3r	.	16c#LL	<	8%3r	.	8%3r	.	8%3r	.	8%3r	.
.	.	.	.	.	.	16e	.	.	.	.	.	.	.	.	.	.	.	.	.	.	.	.	.	.	.	.	.	.	.	.	.	16e	.	.	.	.	.	.	.	.	.
8r	.	8E	.	.	.	16c#	.	.	.	.	.	.	.	.	.	.	.	.	.	.	.	.	.	.	.	.	.	8E'L	.	.	.	16c#	.	.	.	.	.	.	.	.	.
.	.	.	.	.	.	16e	.	.	.	.	.	.	.	.	.	.	.	.	.	.	.	.	.	.	.	.	.	.	.	.	.	16e	.	.	.	.	.	.	.	.	.
8EE	.	8EEJ	.	.	.	16c#	.	.	.	.	.	.	.	.	.	.	.	.	.	.	.	.	[8g	.	[8g	.	.	8EE'J	.	.	.	16c#	.	.	.	.	.	.	.	.	.
.	.	.	.	.	.	16eJJ)	[	.	.	.	.	.	.	.	.	.	.	.	.	.	.	.	.	.	.	.	.	.	.	.	.	16eJJ	[	.	.	.	.	.	.	.	.
=19	=19	=19	=19	=19	=19	=19	=19	=19	=19	=19	=19	=19	=19	=19	=19	=19	=19	=19	=19	=19	=19	=19	=19	=19	=19	=19	=19	=19	=19	=19	=19	=19	=19	=19	=19	=19	=19	=19	=19	=19	=19
8BB-X	.	8BB-XL	.	(4.d	> ]	(16dLL	>	(16eeLL]	.	(16eeLL]	.	8%3r	8%3r	.	8%3r	.	8%3r	.	8%3r	.	8%3r	.	8g]	.	8g]	.	8d)	8rCC	.	8%3r	.	16dLL	>	8%3r	.	8%3r	.	8%3r	.	8%3r	.
.	.	.	.	.	.	16e	.	16ff	.	16ff	.	.	.	.	.	.	.	.	.	.	.	.	.	.	.	.	.	.	.	.	.	16e	.	.	.	.	.	.	.	.	.
8r	.	8E	.	.	.	16d	.	16gg	.	16gg	.	.	.	.	.	.	.	.	.	.	.	.	4b-	.	4b-	.	8rc	8E'L	.	.	.	16d	.	.	.	.	.	.	.	.	.
.	.	.	.	.	.	16e	.	16aa	.	16aa	.	.	.	.	.	.	.	.	.	.	.	.	.	.	.	.	.	.	.	.	.	16e	.	.	.	.	.	.	.	.	.
8r	.	8EEJ	.	.	.	16d	.	16ff	.	16ff	.	.	.	.	.	.	.	.	.	.	.	.	.	.	.	.	8rc	8EE'J	.	.	.	16d	.	.	.	.	.	.	.	.	.
.	.	.	.	.	.	16eJJ))	]	16ggJJ)	.	16ggJJ)	.	.	.	.	.	.	.	.	.	.	.	.	.	.	.	.	.	.	.	.	.	16eJJ	]	.	.	.	.	.	.	.	.
=20	=20	=20	=20	=20	=20	=20	=20	=20	=20	=20	=20	=20	=20	=20	=20	=20	=20	=20	=20	=20	=20	=20	=20	=20	=20	=20	=20	=20	=20	=20	=20	=20	=20	=20	=20	=20	=20	=20	=20	=20	=20
!	!	!	!	!	!	!	!	!	!	!	!	!	!	!	!LO:T:lv	!	!	!	!	!	!	!	!	!	!	!	!	!	!	!	!	!	!	!	!	!	!	!	!	!	!
8AA	.	8AAL	.	4.c#X)	.	(16c#XLL	<	[4.ee	.	[4.ee	.	8%3r	8%3r	.	[4.Re\	.	8%3r	.	8%3r	.	8%3r	.	4a	.	4a	.	(4.c#X	8rCC	.	8%3r	.	16c#LL	<	8%3r	.	8%3r	.	8%3r	.	8%3r	.
.	.	.	.	.	.	16e	.	.	.	.	.	.	.	.	.	.	.	.	.	.	.	.	.	.	.	.	.	.	.	.	.	16e	.	.	.	.	.	.	.	.	.
8r	.	8E	.	.	.	16c#	.	.	.	.	.	.	.	.	.	.	.	.	.	.	.	.	.	.	.	.	.	8E'L	.	.	.	16c#	.	.	.	.	.	.	.	.	.
.	.	.	.	.	.	16e	.	.	.	.	.	.	.	.	.	.	.	.	.	.	.	.	.	.	.	.	.	.	.	.	.	16e	.	.	.	.	.	.	.	.	.
8EE	.	8EEJ	.	.	.	16c#	.	.	.	.	.	.	.	.	.	.	.	.	.	.	.	.	[8g	.	[8g	.	.	8EE'J	.	.	.	16c#	.	.	.	.	.	.	.	.	.
.	.	.	.	.	.	16eJJ)	[	.	.	.	.	.	.	.	.	.	.	.	.	.	.	.	.	.	.	.	.	.	.	.	.	16eJJ	[	.	.	.	.	.	.	.	.
*	*	*	*	*	*	*	*	*	*	*	*	*	*	*	*	*	*	*	*	*	*	*	*	*	*	*	*v	*v	*	*	*	*	*	*	*	*	*	*	*	*	*
=21	=21	=21	=21	=21	=21	=21	=21	=21	=21	=21	=21	=21	=21	=21	=21	=21	=21	=21	=21	=21	=21	=21	=21	=21	=21	=21	=21	=21	=21	=21	=21	=21	=21	=21	=21	=21	=21	=21	=21	=21
!LO:TX:a:t=tutti	!	!	!	!	!	!	!	!	!	!	!	!	!	!	!	!	!	!	!	!	!	!	!	!	!	!	!	!	!	!	!	!	!	!	!	!	!	!	!	!
*	*	*	*	*	*	*	*	*	*	*	*	*	*	*	*	*	*	*	*	*	*	*	*	*	*	*	*	*	*	*	*Xtuplet	*	*	*	*	*	*	*	*	*
!	!	!	!	!	!	!	!	!	!	!	!	!	!	!	!	!	!	!	!	!	!	!	!	!	!	!	!LO:S:a	!	!	!	!	!	!	!	!	!	!	!	!	!
*	*	*	*	*Xtuplet	*	*Xtuplet	*	*	*	*	*	*	*	*	*	*	*	*	*	*	*	*	*	*	*	*	*	*	*	*	*	*	*	*	*	*	*	*	*	*
8AA	.	8AAL	.	16%3.c#Xtt	.	16%3.c#Xtt	mf	(16eeLL]	.	(16eeLL]	.	8%3r	8%3r	.	8%3r	.	8%3r	.	8%3r	.	8%3r	.	8g]	.	8g]	.	([4.AA 4.E)	p	8%3r	.	16%3.c#tt	f <	8%3r	.	8%3r	.	8%3r	.	8%3r	.
.	.	.	.	.	.	.	.	16ff	.	16ff	.	.	.	.	.	.	.	.	.	.	.	.	.	.	.	.	.	.	.	.	.	.	.	.	.	.	.	.	.	.
8r	.	8E	.	.	.	.	.	16ee	.	16ee	.	.	.	.	.	.	.	.	.	.	.	.	4a	.	4a	.	.	.	.	.	.	.	.	.	.	.	.	.	.	.
.	.	.	.	.	.	.	.	16dd	.	16dd	.	.	.	.	.	.	.	.	.	.	.	.	.	.	.	.	.	.	.	.	.	.	.	.	.	.	.	.	.	.
8AAA	.	8AAJ	.	.	.	.	.	16ee	.	16ee	.	.	.	.	.	.	.	.	.	.	.	.	.	.	.	.	.	.	.	.	.	.	.	.	.	.	.	.	.	.
.	.	.	.	(64%3BLL	.	(64%3BLL	.	.	.	.	.	.	.	.	.	.	.	.	.	.	.	.	.	.	.	.	.	.	.	.	(64%3B#XLL	.	.	.	.	.	.	.	.	.
.	.	.	.	.	.	.	.	(8qgg/	.	(8qgg/	.	.	.	.	.	.	.	.	.	.	.	.	.	.	.	.	.	.	.	.	.	.	.	.	.	.	.	.	.	.
.	.	.	.	.	.	.	.	16ffJJ)	.	16ffJJ)	.	.	.	.	.	.	.	.	.	.	.	.	.	.	.	.	.	.	.	.	.	.	.	.	.	.	.	.	.	.
.	.	.	.	64%3c#JJ	.	64%3c#JJ	.	.	.	.	.	.	.	.	.	.	.	.	.	.	.	.	.	.	.	.	.	.	.	.	64%3c#JJ	[	.	.	.	.	.	.	.	.
!!LO:REH:t=8
=22	=22	=22	=22	=22	=22	=22	=22	=22	=22	=22	=22	=22	=22	=22	=22	=22	=22	=22	=22	=22	=22	=22	=22	=22	=22	=22	=22	=22	=22	=22	=22	=22	=22	=22	=22	=22	=22	=22	=22	=22
8DD	.	8D'	.	8d')	.	8d')	.	8dd')	.	8dd')	.	8%3r	8%3r	.	8Re\	.	8%3r	.	8%3r	.	8%3r	.	4f)	.	4f)	.	8AA] 8F)	.	8r	.	8d'))	.	8%3r	.	8%3r	.	8%3r	.	8r	.
*	*	*	*	*clefF4	*	*	*	*	*	*	*	*	*	*	*	*	*	*	*	*	*	*	*	*	*	*	*	*	*	*	*	*	*	*	*	*	*	*	*	*
!	!	!LO:TX:a:t=div. arco	!	!	!	!LO:S:a	!	!LO:S:a	!	!LO:S:a	!	!	!	!	!	!	!	!	!	!	!	!	!	!	!	!	!	!	!	!	!	!	!	!	!	!	!	!	!LO:TX:a:t=a2	!
!	!	!	!	!	!	!	!	!	!	!	!	!	!	!	!	!	!	!	!	!	!	!	!	!	!	!	!	!	!	!	!	!	!	!	!	!	!	!	!LO:S:a	!
.	.	.	.	.	.	(((8qe/	<	(((8qee/	<	(((8qee/	<	.	.	.	.	.	.	.	.	.	.	.	.	.	.	.	.	.	.	.	((8qe/	p <	.	.	.	.	.	.	((8qee/	mf <
!	!	!	!	!	!	!	!	!	!	!	!	!	!	!	!	!	!	!	!	!	!	!	!	!	!	!	!	!	!	!	!	!	!	!	!	!	!	!	!	!
8r	.	(((16DDLL 16D	<	((16DLL	<	16dLL)	.	16ddLL)	.	16ddLL)	.	.	.	.	8r	.	.	.	.	.	.	.	.	.	.	.	(16DDLL 16D	<	(16DLL	p <	16dLL)	.	.	.	.	.	.	.	16ddLL)	.
.	.	16CC#X 16C#X	.	16C#X	.	16c#X	.	16cc#X	.	16cc#X	.	.	.	.	.	.	.	.	.	.	.	.	.	.	.	.	16CC#X 16C#X	.	16C#	.	16c#	.	.	.	.	.	.	.	16cc#X	.
8r	.	16DD 16D	.	16D	.	16d	.	16dd	.	16dd	.	.	.	.	8r	.	.	.	.	.	.	.	8r	.	8r	.	16DD 16D	.	16D	.	16d	.	.	.	.	.	.	.	16dd	.
.	.	16EEJJ 16E)	.	16EJJ)	.	16eJJ)	.	16eeJJ)	.	16eeJJ)	.	.	.	.	.	.	.	.	.	.	.	.	.	.	.	.	16EEJJ 16E	.	16EJJ	.	16eJJ	.	.	.	.	.	.	.	16eeJJ	.
=23	=23	=23	=23	=23	=23	=23	=23	=23	=23	=23	=23	=23	=23	=23	=23	=23	=23	=23	=23	=23	=23	=23	=23	=23	=23	=23	=23	=23	=23	=23	=23	=23	=23	=23	=23	=23	=23	=23	=23	=23
!LO:TX:a:t=arco	!	!	!	!	!	!	!	!	!	!	!	!	!	!	!	!	!	!	!	!	!	!	!	!	!	!	!	!	!	!	!	!	!	!	!	!	!	!	!	!
(16FFLL	<	(16FFLL 16F	.	(16FLL	.	(16fLL	.	(16ffLL	.	(16ffLL	.	8%3r	8%3r	.	8%3r	.	8%3r	.	8%3r	.	8%3r	.	8%3r	.	8%3r	.	16FFLL 16F	.	16FXLL	.	16fXLL	.	8%3r	.	8%3r	.	8%3r	.	16ffLL	.
16GG	.	16GG 16G	.	16G	.	16g	.	16gg	.	16gg	.	.	.	.	.	.	.	.	.	.	.	.	.	.	.	.	16GG 16G	.	16GX	.	16gX	.	.	.	.	.	.	.	16gg	.
16AA	.	16AA 16A	.	16A	.	16a	.	16aa	.	16aa	.	.	.	.	.	.	.	.	.	.	.	.	.	.	.	.	16AA 16A	.	16A	.	16a	.	.	.	.	.	.	.	16aa	.
16BB	.	16BB 16B	.	16B	.	16b	.	16bb	.	16bb	.	.	.	.	.	.	.	.	.	.	.	.	.	.	.	.	16BB 16B	.	16B	.	16b	.	.	.	.	.	.	.	16bb	.
16C#X	.	16C#X 16c#X	.	16c#X	.	16cc#X	.	16ccc#X	.	16ccc#X	.	.	.	.	.	.	.	.	.	.	.	.	.	.	.	.	16C#X 16c#X	.	16c#	.	16cc#	.	.	.	.	.	.	.	16ccc#X	.
16DJJ	[	16DJJ 16d))	[	16dJJ)	[	16ddJJ)	[	16dddJJ)	[	16dddJJ)	[	.	.	.	.	.	.	.	.	.	.	.	.	.	.	.	16DJJ 16d	[	16dJJ	[	16ddJJ	[	.	.	.	.	.	.	16dddJJ	[
=24	=24	=24	=24	=24	=24	=24	=24	=24	=24	=24	=24	=24	=24	=24	=24	=24	=24	=24	=24	=24	=24	=24	=24	=24	=24	=24	=24	=24	=24	=24	=24	=24	=24	=24	=24	=24	=24	=24	=24	=24
*	*	*	*	*	*	*	*	*	*	*	*	*	*	*	*	*	*	*	*	*	*	*	*	*	*	*	*^	*	*	*	*	*	*	*	*	*	*	*	*	*
*grp:A	*	*grp:A	*	*grp:A	*	*grp:B	*	*grp:B	*	*grp:B	*	*grp:A	*grp:A	*	*grp:B	*	*grp:B	*	*grp:B	*	*grp:B	*	*grp:B	*	*grp:B	*	*grp:B	*grp:B	*	*grp:B	*	*grp:B	*	*grp:B	*	*grp:B	*	*grp:B	*	*grp:B	*
!	!	!	!	!	!	!	!	!	!	!	!	!	!	!	!	!	!	!	!	!	!	!	!	!	!	!	!	!	!LO:DY:t=%s marc.	!	!LO:DY:t=%s marc.	!	!LO:DY:t=%s marc.	!	!LO:DY:t=%s marc.	!	!LO:DY:t=%s marc.	!	!LO:DY:t=%s marc.	!	!LO:DY:t=%s marc.
8F')	f	8F' 8f)	f	8f')	f	8ff')	f	8fff')	f	8fff')	f	8%3r	8%3r	.	8%3r	.	8Re\L	f	8%3r	.	8%3r	.	8%3r	.	8%3r	.	8f')	8F'	f	8fX')	f	8ffX')	f	8ff'	f	8ff' 8fff	f	8ffff'	f	8fff')	f
!	!	!	!	!	!	!	!	!	!	!	!	!	!	!	!	!	!	!	!	!	!	!	!	!	!	!	!LO:TX:a:t=1o	!	!	!	!	!	!	!	!	!	!	!	!	!	!
8r	.	8r	.	8r	.	(24eeLL	.	(24eeeLL	.	(24eeeLL	.	.	.	.	.	.	24Re\L	.	.	.	.	.	.	.	.	.	(24eLL	8r	.	(24eLL	.	(24eeLL	.	(24eeLL	.	(24eeLL 24eee	.	(24eeeeLL	.	(24eeeLL	.
.	.	.	.	.	.	24ff	.	24fff	.	24fff	.	.	.	.	.	.	24Re\	.	.	.	.	.	.	.	.	.	24f	.	.	24f	.	24ff	.	24ff	.	24ff 24fff	.	24ffff	.	24fff	.
.	.	.	.	.	.	24eeJJ	.	24eeeJJ	.	24eeeJJ	.	.	.	.	.	.	24Re\J	.	.	.	.	.	.	.	.	.	24eJJ	.	.	24eJJ	.	24eeJJ	.	24eeJJ	.	24eeJJ 24eee	.	24eeeeJJ	.	24eeeJJ	.
8r	.	8r	.	8r	.	8dd')	.	8ddd')	.	8ddd')	.	.	.	.	.	.	8Re\J	.	.	.	.	.	.	.	.	.	8d')	8r	.	8d')	.	8dd')	.	8dd')	.	8dd' 8ddd)	.	8dddd')	.	8ddd')	.
*	*	*	*	*	*	*	*	*	*	*	*	*	*	*	*	*	*	*	*	*	*	*	*	*	*	*	*v	*v	*	*	*	*	*	*	*	*	*	*	*	*	*
=	=	=	=	=	=	=	=	=	=	=	=	=	=	=	=	=	=	=	=	=	=	=	=	=	=	=	=	=	=	=	=	=	=	=	=	=	=	=	=	=
*-	*-	*-	*-	*-	*-	*-	*-	*-	*-	*-	*-	*-	*-	*-	*-	*-	*-	*-	*-	*-	*-	*-	*-	*-	*-	*-	*-	*-	*-	*-	*-	*-	*-	*-	*-	*-	*-	*-	*-	*-
!!!system-decoration: [(s1,s2,s3,s4,s5,s6,s7)][([(s8,s9)]s10,s11,s12)][(s13,s14,s15)][({(s16,s17)})][(s18,s19,s20,s21,s22,s23)]
!!!RDF**kern: < = below
!!!RDF**kern: j = marked note, color="magenta", text="extra)"
!!!RDF**kern: O = tremolo
!!!CDT: 1876/11/23-1946/11/14
!!!CBL: Cádiz, Spain
!!!CDL: Alta Gracia, Argentina
!!!CNT: Spanish
!!!AGN: Stage
!!!MCN: Miranne, Jacques
!!!MDT: 1913/04/01
!!!MGN: unknown
!!!MLC: Nice, France
!!!MPD: 1913
!!!MPN: Bernard, Mlle; Cotreuil; Raynal; Devries, David; Durelly, Mlle; Fanty, Mlle; Gerday, Mlle; Grenville, Lilian; Terman; Rouziery
!!!ODT: 1913
!!!PDT: 1913
!!!excerpt-start-measure: 127
!!!excerpt-end-measure: 150
!!!excerpt-start-time: 3:22
!!!excerpt-end-time: 3:42
!!!EEV: 2020/01/27
!!!ONB: Converted from MusicXML on 2020/01/27
!!!EED2: Jason Lee
!!!EEV2: 2022/12/19
!!!EED3: Bryan Bell
!!!Suter_Work_ID: Fal-1
!!!Suter_Example_Number: 301
!!!Suter_Example_ID: Fal-1/67/127-150
!!!Premiere_Location: Nice,France
!!!Other_Tsigs: none
!!!Full_Unit_Duration: 6:22
!!!First_Publication_Year: 1913
!!!First_Public_Performance_Year: 1913
!!!Example_Total_Measures: 24
!!!Example_Timestamp_Duration: 19
!!!Example_Start_Tsig_Type: simple triple
!!!Example_Start_Tsig_Mean_Beat_Rate: 180
!!!Example_Start_Tsig_Beat_Rate: 180
!!!Example_Start_Tsig_Beat: eighth
!!!Example_Start_Tsig: 3/8
!!!Example_Start_Timestamp: 0:19
!!!Example_Start_Tempo_Expression: [Tempo I° (Allegramente e vivo, ma non troppo)]
!!!Example_Start_Notated_Beat_Rate: [60]
!!!Example_Start_Notated_Beat: [dotted-quarter]
!!!Example_Start_Measure: 127
!!!Example_Metadata_Validated: Y
!!!Example_End_Timestamp: 0:38
!!!Example_End_Measure: 150
!!!Example_Dataset: T
!!!Editorial_Comments: Example Start Notated Beat and Example Start Notated Beat Rate [dotted-quarter=60] based on most recent notated beat rate (SWFU, m. 103). Example Start Tempo Expression [Tempo I° (Allegramente e vivo, ma non troppo)] based on most recent notated tempo expressions (SWFU, m. 103 and m. 1). Editorial Note: Measure 100 is missing, due to mislabelling, from the E1 score in nkoda. Full Unit Duration calculated from Track 8 (0:00) to Track 9 (3:19) (https://ubc-nml3-naxosmusiclibrary-com.eu1.proxy.openathens.net/catalogue/item.asp?cid=DOR-90192). Example Start and End Time based on Track 9 \"Act II Scene 1: Danza\" (https://ubc-nml3-naxosmusiclibrary-com.eu1.proxy.openathens.net/catalogue/item.asp?cid=DOR-90192).
!!!Death_Place: Alta Gracia,Argentina
!!!Death_Date: 14-Nov-1946
!!!Changing_Tsig: no
!!!Birth_Place: Cádiz,Spain
!!!Birth_Date: 23-Nov-1876
!!!Audio_Example_Quarter_Note_Tempo:
!!!Audio_Example_Duration:
!!!EEV3: 2023/05/31
